X:1
T:Southport (Kingsley), CM
T:Southport (Kingsley), CM
T:George Kingsley, 1865
T:Public Domain Courtesy of the Cyber Hymnal™
C:George Kingsley, 1865
Z:Public Domain
Z:Courtesy of the Cyber Hymnal™
%%score ( 1 2 ) ( 3 4 )
L:1/8
M:3/2
K:Eb
V:1 treble 
V:2 treble 
V:3 bass 
V:4 bass 
V:1
 (E2 F2) | [EG]3 [EG] [EG]4 [EB]4 | [Ec]3 [EA] [EA]4 [Ec]4 | [DB]3 [DF] [DF]4 [EG]2 [FA]2 | %4
 [EG]8 [EG]2 [FA]2 | [GB]3 [GB] [GB]4 [Ge]4 | [Ae]3 [Ac] [Ac]4 [Ac]4 | [FB]3 [DF] F2 B2 (A2 F2) | %8
 E8 |] %9
V:2
 B,4 | x12 | x12 | x12 | x12 | x12 | x12 | x4 D4 D4 | E8 |] %9
V:3
 (G,2 A,2) | [E,B,]3 [E,B,] [E,B,]4 [E,G,]4 | [A,,A,]3 [A,,C] [A,,C]4 [A,,A,]4 | %3
 [B,,F,]3 [B,,B,] [B,,B,]4 [B,,B,]4 | [E,B,]8 [E,B,]4 | [E,E]3 [E,E] [E,E]4 [E,B,]4 | %6
 [A,C]3 [A,E] [A,E]4 [A,,E]4 | [B,,D]3 [B,,B,] [B,,B,]4 (B,2 A,2) | [E,G,]8 |] %9
V:4
 E,4 | x12 | x12 | x12 | x12 | x12 | x12 | x8 B,,4 | x8 |] %9

